X: 4
T: The Milky Way
R: reel
M: 4/4
L: 1/8
K: Dmaj
|: D2 ED FAAB | d2 fd efdB | D2 ED FAAd | BF~F2 BFAF |D2 ED FAAB | dffd ef d2 | efdB BAFB |[1 AFEG FDDE :|[2 AFEG FD D2 |||: efdB BAFA | dffd ef d2 | efdB BAFB | AFEG FD D2 |efdB BAFA | d2 fd efde | f2 df efdB |[1 AFEG FD D2 :|[2 AFEG FDDE |]


Tune 2241	Setting 15613

